tools/download-figma-icons/icons/solid/gold-shiny.svg

<svg width="25" height="24" viewBox="0 0 25 24" fill="none" xmlns="http://www.w3.org/2000/svg">
<path fill-rule="evenodd" clip-rule="evenodd" d="M11.3418 8.39349C11.3418 8.80824 11.6778 9.14349 12.0918 9.14349C12.5058 9.14349 12.8418 8.80824 12.8418 8.39349V3.75024C12.8418 3.33549 12.5058 3.00024 12.0918 3.00024C11.6778 3.00024 11.3418 3.33549 11.3418 3.75024V8.39349ZM12.0296 21.4803L13.6271 18.3603H10.4321L12.0296 21.4803ZM21.0971 17.2653L23.9546 22.8303C24.0746 23.0636 24.0596 23.3403 23.9246 23.5653C23.7896 23.7903 23.5496 23.9253 23.2871 23.9253H0.772134C0.509634 23.9253 0.269634 23.7903 0.134634 23.5653C-0.00786577 23.3403 -0.0153658 23.0636 0.104634 22.8303L2.95463 17.2653C3.08213 17.0178 3.34463 16.8603 3.62213 16.8603H5.99213L8.63213 11.6928C8.76713 11.4453 9.02213 11.2878 9.29963 11.2878H14.8796C15.1646 11.2878 15.4196 11.4453 15.5471 11.6928L18.1871 16.8603H20.4296C20.7146 16.8603 20.9696 17.0178 21.0971 17.2653ZM17.147 9.74702C17.0742 9.74702 17 9.73652 16.9265 9.71402C16.5305 9.59252 16.3077 9.17252 16.4292 8.77652L17.7927 4.33727C17.9142 3.94127 18.335 3.71777 18.7302 3.84077C19.1262 3.96227 19.349 4.38227 19.2267 4.77827L17.864 9.21752C17.7642 9.54002 17.4672 9.74702 17.147 9.74702ZM20.2755 12.9041C20.4075 12.9993 20.5613 13.0458 20.7135 13.0458C20.946 13.0458 21.1755 12.9378 21.3225 12.7353L24.042 8.97106C24.2843 8.63506 24.2085 8.16631 23.8725 7.92406C23.5373 7.68181 23.0678 7.75606 22.8255 8.09281L20.106 11.8563C19.8638 12.1923 19.9395 12.6611 20.2755 12.9041ZM7.03658 9.74703C6.71558 9.74703 6.41933 9.54003 6.31958 9.21753L4.95683 4.77828C4.83458 4.38228 5.05733 3.96228 5.45333 3.84078C5.85008 3.71928 6.26933 3.94203 6.39083 4.33728L7.75433 8.77653C7.87583 9.17253 7.65308 9.59253 7.25708 9.71403C7.18358 9.73653 7.10933 9.74703 7.03658 9.74703ZM2.86111 12.7353C3.00811 12.9378 3.23761 13.0458 3.47011 13.0458C3.62236 13.0458 3.77611 12.9993 3.90811 12.9041C4.24411 12.6611 4.31986 12.1923 4.07761 11.8563L1.35811 8.09282C1.11586 7.75758 0.647112 7.68183 0.311112 7.92408C-0.0248883 8.16633 -0.100638 8.63508 0.142362 8.97108L2.86111 12.7353Z" fill="black"/>
</svg>

<svg xmlns="http://www.w3.org/2000/svg" width="25" height="24" fill="none" viewBox="0 0 25 24"><path fill="currentColor" fill-rule="evenodd" d="M11.342 8.393a.75.75 0 1 0 1.5 0V3.75a.75.75 0 1 0-1.5 0zm.688 13.087 1.597-3.12h-3.195zm9.067-4.215 2.858 5.565a.755.755 0 0 1-.668 1.095H.772a.74.74 0 0 1-.637-.36.74.74 0 0 1-.03-.735l2.85-5.565a.76.76 0 0 1 .667-.405h2.37l2.64-5.167a.77.77 0 0 1 .668-.405h5.58c.285 0 .54.157.667.405l2.64 5.167h2.243c.285 0 .54.158.667.405m-3.95-7.518a.752.752 0 0 1-.718-.97l1.364-4.44a.75.75 0 1 1 1.434.441l-1.363 4.44a.75.75 0 0 1-.717.529m3.129 3.157a.75.75 0 0 0 1.047-.169l2.719-3.764a.75.75 0 0 0-1.216-.878l-2.72 3.763a.75.75 0 0 0 .17 1.048M7.036 9.747a.75.75 0 0 1-.716-.53L4.957 4.779a.75.75 0 1 1 1.434-.44l1.363 4.439a.75.75 0 0 1-.717.97m-4.175 2.988a.751.751 0 0 0 1.217-.879l-2.72-3.763a.75.75 0 0 0-1.216.878z" clip-rule="evenodd"/></svg>
